X: 18584
T: I Ne'er Shall Wean Her
R: jig
M: 6/8
K: Adorian
E3 GED|E3 c2B|A3 AGA|cde e2d|
cde g2a|ged c2d|e2a ged|1 cAG A2 G:|2 cAG A3||
|:g3 ged|e2g ged|e2a a3|bag a3|
cde g2a|ged c2d|e2a ged|cAG A3:|

